icon/lg/eventsentry.svg

<?xml version="1.0" encoding="UTF-8" standalone="no"?>
<svg viewBox="0 0 256 256" version="1.1" xmlns="http://www.w3.org/2000/svg" xmlns:xlink="http://www.w3.org/1999/xlink" preserveAspectRatio="xMidYMid" height="1em" width="1em">
  <defs>
    <path id="path-1" d="M98.1465946,242.921514 L13.4157838,158.188973 C-3.29167568,141.481514 -3.29167568,114.393946 13.4157838,97.6864865 L98.1465946,12.9556757 C114.854054,-3.75178378 141.941622,-3.75178378 158.649081,12.9556757 L243.379892,97.6864865 C260.087351,114.393946 260.087351,141.481514 243.379892,158.188973 L158.649081,242.921514 C141.941622,259.628973 114.854054,259.628973 98.1465946,242.921514"/>
  </defs>
  <g>
    <mask id="mask-2" fill="white">
      <use xlink:href="#path-1"/>
    </mask>
    <use fill="#FFFFFF" xlink:href="#path-1"/>
    <path d="M247.195676,102.088649 C246.047135,100.583784 244.827676,99.116973 243.450811,97.7401081 L213.574919,67.8642162 C153.997838,94.2633514 35.5234595,99.731027 9.22464865,100.613189 C9.3267027,100.492108 0.819891892,116.35373 0.902918919,116.070054 C34.2503784,117.711568 197.040432,124.208432 247.195676,102.088649" fill="#F4922E" mask="url(#mask-2)"/>
    <path d="M33.0810811,77.1891892 C64.8441081,76.2188108 135.775135,70.4812973 187.321081,40.0051892 L158.39827,11.8451892 C141.500541,-5.61643243 113.544649,-4.48864865 96.6486486,12.972973 L33.0810811,77.1891892" fill="#F4922E" mask="url(#mask-2)"/>
    <path d="M96.6348108,243.027027 C113.34227,259.734486 140.756757,262.054054 159.567568,243.459459 L189.427892,213.599135 C139.673946,184.430703 68.0648649,181.277405 35.4594595,181.837838 L96.6348108,243.027027" fill="#F4922E" mask="url(#mask-2)"/>
    <path d="M-1.58616216,136.252541 L9.48583784,157.571459 C42.7450811,158.662919 144.356324,163.741405 215.145514,186.549622 L243.450811,158.244324 C245.690811,156.004324 247.605622,153.567135 249.245405,151.005405 C201.174486,127.546811 33.6,134.664649 1.82140541,136.252541" fill="#F4922E" mask="url(#mask-2)"/>
  </g>
</svg>

<svg width="256" height="256" xmlns="http://www.w3.org/2000/svg" xmlns:xlink="http://www.w3.org/1999/xlink" preserveAspectRatio="xMidYMid"><defs><path id="a" d="m98.147 242.922-84.731-84.733c-16.708-16.707-16.708-43.795 0-60.503l84.73-84.73c16.708-16.708 43.796-16.708 60.503 0l84.73 84.73c16.708 16.708 16.708 43.796 0 60.503l-84.73 84.733c-16.707 16.707-43.795 16.707-60.502 0"/></defs><mask id="b" fill="#fff"><use xlink:href="#a"/></mask><use fill="#FFF" xlink:href="#a"/><path d="M247.196 102.089c-1.149-1.505-2.368-2.972-3.745-4.349l-29.876-29.876c-59.577 26.4-178.052 31.867-204.35 32.75.102-.122-8.405 15.74-8.322 15.456 33.347 1.642 196.137 8.138 246.293-13.981M33.081 77.19c31.763-.971 102.694-6.709 154.24-37.185l-28.923-28.16c-16.897-17.461-44.853-16.334-61.75 1.128L33.082 77.189M96.635 243.027c16.707 16.707 44.122 19.027 62.933.432l29.86-29.86c-49.754-29.168-121.363-32.322-153.969-31.761l61.176 61.189M-1.586 136.253 9.486 157.57c33.26 1.092 134.87 6.17 205.66 28.979l28.305-28.306a42.92 42.92 0 0 0 5.794-7.239c-48.07-23.458-215.645-16.34-247.424-14.752" fill="#F4922E" mask="url(#b)"/></svg>
